ProyectoCurvity_principal/icons/check.svg

<?xml version="1.0" encoding="iso-8859-1"?>
<!-- Generator: Adobe Illustrator 19.0.0, SVG Export Plug-In . SVG Version: 6.00 Build 0)  -->
<svg version="1.1" id="Layer_1" xmlns="http://www.w3.org/2000/svg" xmlns:xlink="http://www.w3.org/1999/xlink" x="0px" y="0px"
	 viewBox="0 0 511.999 511.999" style="enable-background:new 0 0 511.999 511.999;" xml:space="preserve">
<path style="fill:#A5EB78;" d="M427.534,73.084l-224.51,224.51c-6.051,6.051-15.863,6.051-21.914,0l-96.645-96.645L8.099,277.313
	l145.785,145.785c10.127,10.127,23.862,15.816,38.183,15.816l0,0c14.32,0,28.057-5.69,38.182-15.816l273.65-273.65L427.534,73.084z"
	/>
<g style="opacity:0.1;">
	<path d="M478.646,124.196L189.754,413.087c-7.993,7.992-18.043,13.442-28.902,15.872c9.066,6.425,19.956,9.955,31.215,9.955l0,0
		c14.32,0,28.057-5.69,38.182-15.816l273.65-273.65L478.646,124.196z"/>
</g>
<path d="M192.068,447.014c-16.587,0-32.182-6.459-43.912-18.189L2.372,283.04c-3.163-3.163-3.163-8.292,0-11.454l76.366-76.366
	c3.164-3.163,8.292-3.163,11.455,0l28.668,28.667c3.163,3.163,3.163,8.292,0,11.454c-3.165,3.163-8.293,3.162-11.455,0l-22.94-22.94
	l-64.911,64.911l140.058,140.058c8.669,8.669,20.195,13.443,32.456,13.443c12.26,0,23.785-4.775,32.456-13.443l186.951-186.952
	c3.163-3.163,8.291-3.164,11.455,0c3.163,3.163,3.163,8.292,0,11.454L235.979,428.826
	C224.248,440.555,208.653,447.014,192.068,447.014z"/>
<path d="M192.068,310.232c-6.303,0-12.228-2.454-16.684-6.911l-45.068-45.068c-3.163-3.163-3.163-8.292,0-11.454
	c3.164-3.163,8.292-3.163,11.455,0l45.068,45.068c1.396,1.396,3.254,2.165,5.229,2.165s3.833-0.769,5.23-2.166L421.806,67.357
	c3.164-3.163,8.292-3.163,11.455,0l76.366,76.366c1.518,1.518,2.372,3.579,2.372,5.727s-0.853,4.209-2.372,5.727l-63.787,63.787
	c-3.164,3.163-8.292,3.162-11.455,0c-3.163-3.163-3.163-8.292,0-11.454l58.061-58.06l-64.91-64.91L208.752,303.321
	C204.295,307.777,198.369,310.232,192.068,310.232z"/>
<g>
</g>
<g>
</g>
<g>
</g>
<g>
</g>
<g>
</g>
<g>
</g>
<g>
</g>
<g>
</g>
<g>
</g>
<g>
</g>
<g>
</g>
<g>
</g>
<g>
</g>
<g>
</g>
<g>
</g>
</svg>

<svg xmlns="http://www.w3.org/2000/svg" width="511.999" height="382.029" viewBox="0 0 511.999 382.029">
  <g id="check1" transform="translate(0 -64.985)">
    <path id="Trazado_1" data-name="Trazado 1" d="M427.534,73.084l-224.51,224.51a15.5,15.5,0,0,1-21.914,0L84.465,200.949,8.1,277.313,153.884,423.1a54,54,0,0,0,38.183,15.816h0A54,54,0,0,0,230.249,423.1L503.9,149.448Z" fill="#8cd65b"/>
    <path id="Trazado_3" data-name="Trazado 3" d="M192.068,447.014a61.694,61.694,0,0,1-43.912-18.189L2.372,283.04a8.1,8.1,0,0,1,0-11.454L78.738,195.22a8.1,8.1,0,0,1,11.455,0l28.668,28.667a8.1,8.1,0,1,1-11.455,11.454L84.466,212.4,19.555,277.312,159.613,417.37a45.9,45.9,0,0,0,64.912,0L411.476,230.418a8.1,8.1,0,0,1,11.455,11.454L235.979,428.826A61.7,61.7,0,0,1,192.068,447.014Z" fill="#0b850b"/>
    <path id="Trazado_4" data-name="Trazado 4" d="M192.068,310.232a23.436,23.436,0,0,1-16.684-6.911l-45.068-45.068A8.1,8.1,0,1,1,141.771,246.8l45.068,45.068a7.4,7.4,0,0,0,10.459,0L421.806,67.357a8.1,8.1,0,0,1,11.455,0l76.366,76.366a8.1,8.1,0,0,1,0,11.454L445.84,218.964a8.1,8.1,0,0,1-11.455-11.454l58.061-58.06-64.91-64.91L208.752,303.321A23.446,23.446,0,0,1,192.068,310.232Z" fill="#0b850b"/>
  </g>
</svg>
